icons/numix/16x16/status/screencloud-uploading.svg

<?xml version="1.0" encoding="UTF-8" standalone="no"?>
<svg
   xmlns:dc="http://purl.org/dc/elements/1.1/"
   xmlns:cc="http://creativecommons.org/ns#"
   xmlns:rdf="http://www.w3.org/1999/02/22-rdf-syntax-ns#"
   xmlns:svg="http://www.w3.org/2000/svg"
   xmlns="http://www.w3.org/2000/svg"
   xmlns:sodipodi="http://sodipodi.sourceforge.net/DTD/sodipodi-0.dtd"
   xmlns:inkscape="http://www.inkscape.org/namespaces/inkscape"
   width="16"
   height="16"
   viewBox="0 0 16 16"
   id="svg3043"
   version="1.1"
   inkscape:version="0.48.5 r10040"
   sodipodi:docname="screencloud-uploading.svg">
  <metadata
     id="metadata3081">
    <rdf:RDF>
      <cc:Work
         rdf:about="">
        <dc:format>image/svg+xml</dc:format>
        <dc:type
           rdf:resource="http://purl.org/dc/dcmitype/StillImage" />
      </cc:Work>
    </rdf:RDF>
  </metadata>
  <sodipodi:namedview
     pagecolor="#ffffff"
     bordercolor="#666666"
     borderopacity="1"
     objecttolerance="10"
     gridtolerance="10"
     guidetolerance="10"
     inkscape:pageopacity="0"
     inkscape:pageshadow="2"
     inkscape:window-width="640"
     inkscape:window-height="480"
     id="namedview3079"
     showgrid="false"
     inkscape:zoom="14.75"
     inkscape:cx="8"
     inkscape:cy="8"
     inkscape:window-x="0"
     inkscape:window-y="0"
     inkscape:window-maximized="0"
     inkscape:current-layer="svg3043" />
  <defs
     id="defs3045">
    <filter
       id="0"
       filterUnits="objectBoundingBox"
       x="0"
       y="0"
       width="16"
       height="16">
      <feColorMatrix
         type="matrix"
         in="SourceGraphic"
         values="0 0 0 0 1 0 0 0 0 1 0 0 0 0 1 0 0 0 1 0"
         id="feColorMatrix3048" />
    </filter>
    <mask
       id="1">
      <g
         filter="url(#0)"
         id="g3051">
        <rect
           width="16"
           height="16"
           fill-opacity="0.302"
           id="rect3053" />
      </g>
    </mask>
    <clipPath
       id="2">
      <rect
         width="16"
         height="16"
         id="rect3056" />
    </clipPath>
    <g
       id="3"
       clip-path="url(#2)">
      <path
         d="M 5.886719 6.25 C 3.734375 6.25 2 7.984375 2 10.136719 C 2 10.226562 1.996094 10.320312 2 10.410156 C 1.242188 10.773438 0.726562 11.515625 0.726562 12.363281 C 0.726562 13.578125 1.78125 14.546875 3.089844 14.546875 L 12.910156 14.546875 C 14.21875 14.546875 15.273438 13.578125 15.273438 12.363281 C 15.273438 11.460938 14.699219 10.679688 13.863281 10.339844 C 13.882812 10.203125 13.886719 10.074219 13.886719 9.933594 C 13.886719 8.390625 12.632812 7.136719 11.089844 7.136719 C 10.316406 7.136719 9.621094 7.445312 9.113281 7.953125 C 8.414062 6.921875 7.226562 6.25 5.886719 6.25 Z M 4.273438 7.433594 C 4.695312 7.433594 5.046875 7.757812 5.046875 8.160156 C 5.046875 8.5625 4.695312 8.886719 4.273438 8.886719 C 3.851562 8.886719 3.523438 8.5625 3.523438 8.160156 C 3.523438 7.757812 3.851562 7.433594 4.273438 7.433594 Z M 7.976562 8 L 10.183594 11.203125 L 8.839844 11.203125 L 8.839844 13.816406 L 7.066406 13.816406 L 7.066406 11.203125 L 5.816406 11.203125 Z "
         id="path3059" />
      <path
         d="M 12.644531 7.078125 L 12.351562 6.800781 L 11.960938 6.886719 L 12.132812 6.523438 L 11.929688 6.175781 L 12.328125 6.226562 L 12.597656 5.929688 L 12.671875 6.324219 L 13.039062 6.484375 L 12.6875 6.679688 Z "
         id="path3061" />
      <path
         d="M 12.96875 6.34375 L 12.984375 6.15625 L 12.835938 6.035156 L 13.019531 5.992188 L 13.089844 5.816406 L 13.1875 5.980469 L 13.375 5.988281 L 13.253906 6.132812 L 13.300781 6.316406 L 13.125 6.242188 Z "
         id="path3063" />
      <path
         d="M 13.144531 7.4375 L 13.109375 7.152344 L 12.851562 7.019531 L 13.113281 6.898438 L 13.160156 6.613281 L 13.355469 6.824219 L 13.640625 6.78125 L 13.503906 7.03125 L 13.628906 7.289062 L 13.347656 7.234375 Z "
         id="path3065" />
    </g>
  </defs>
  <path
     style="fill:#ececec;fill-opacity:1"
     inkscape:connector-curvature="0"
     id="path3071"
     d="M 5.886719,5.523438 C 3.734375,5.523438 2,7.257812 2,9.410156 2,9.496094 1.996094,9.59375 2,9.683594 c -0.757812,0.363281 -1.273438,1.105468 -1.273438,1.953125 0,1.214843 1.054688,2.179687 2.363282,2.179687 l 9.820312,0 c 1.308594,0 2.363282,-0.964844 2.363282,-2.179687 0,-0.902344 -0.574219,-1.6875 -1.410157,-2.023438 0.01953,-0.136719 0.02344,-0.265625 0.02344,-0.410156 0,-1.539063 -1.253907,-2.792969 -2.796875,-2.792969 -0.773438,0 -1.46875,0.308594 -1.976563,0.816406 C 8.414062,6.195312 7.226562,5.523438 5.886719,5.523438 z M 4.273438,6.703125 c 0.421874,0 0.773437,0.328125 0.773437,0.730469 0,0.398437 -0.351563,0.726562 -0.773437,0.726562 -0.421876,0 -0.75,-0.328125 -0.75,-0.726562 0,-0.402344 0.328124,-0.730469 0.75,-0.730469 z m 3.703124,0.570313 2.207032,3.203124 -1.34375,0 0,2.613282 -1.773438,0 0,-2.613282 -1.25,0 z" />
  <path
     style="fill:#ececec;fill-opacity:1"
     inkscape:connector-curvature="0"
     id="path3073"
     d="M 12.644531,6.351562 12.351562,6.074219 11.960938,6.160156 12.132812,5.796875 11.929688,5.449219 12.328125,5.5 12.597656,5.199219 12.671875,5.597656 13.039062,5.757812 12.6875,5.953125 z" />
  <path
     style="fill:#ececec;fill-opacity:1"
     inkscape:connector-curvature="0"
     id="path3075"
     d="m 12.96875,5.617188 0.01563,-0.1875 -0.148437,-0.121094 0.183593,-0.042969 0.07031,-0.175781 0.09766,0.164062 0.1875,0.00781 -0.121094,0.144531 0.04687,0.179688 L 13.125,5.515625 z" />
  <path
     style="fill:#ececec;fill-opacity:1"
     inkscape:connector-curvature="0"
     id="path3077"
     d="m 13.144531,6.710938 -0.03516,-0.285157 -0.257813,-0.132812 0.261719,-0.125 0.04687,-0.28125 0.195313,0.210937 0.285156,-0.042968 -0.136719,0.25 0.125,0.257812 -0.28125,-0.054688 z" />
</svg>

<svg xmlns="http://www.w3.org/2000/svg" xmlns:xlink="http://www.w3.org/1999/xlink" width="16" height="16" viewBox="0 0 16 16">
 <defs>
  <filter id="0" filterUnits="objectBoundingBox" x="0" y="0" width="16" height="16">
   <feColorMatrix type="matrix" in="SourceGraphic" values="0 0 0 0 1 0 0 0 0 1 0 0 0 0 1 0 0 0 1 0"/>
  </filter>
  <mask id="1">
   <g filter="url(#0)">
    <rect width="16" height="16" fill-opacity="0.302"/>
   </g>
  </mask>
  <clipPath id="2">
   <rect width="16" height="16"/>
  </clipPath>
  <g id="3" clip-path="url(#2)">
   <path d="M 5.886719 6.25 C 3.734375 6.25 2 7.984375 2 10.136719 C 2 10.226562 1.996094 10.320312 2 10.410156 C 1.242188 10.773438 0.726562 11.515625 0.726562 12.363281 C 0.726562 13.578125 1.78125 14.546875 3.089844 14.546875 L 12.910156 14.546875 C 14.21875 14.546875 15.273438 13.578125 15.273438 12.363281 C 15.273438 11.460938 14.699219 10.679688 13.863281 10.339844 C 13.882812 10.203125 13.886719 10.074219 13.886719 9.933594 C 13.886719 8.390625 12.632812 7.136719 11.089844 7.136719 C 10.316406 7.136719 9.621094 7.445312 9.113281 7.953125 C 8.414062 6.921875 7.226562 6.25 5.886719 6.25 Z M 4.273438 7.433594 C 4.695312 7.433594 5.046875 7.757812 5.046875 8.160156 C 5.046875 8.5625 4.695312 8.886719 4.273438 8.886719 C 3.851562 8.886719 3.523438 8.5625 3.523438 8.160156 C 3.523438 7.757812 3.851562 7.433594 4.273438 7.433594 Z M 7.976562 8 L 10.183594 11.203125 L 8.839844 11.203125 L 8.839844 13.816406 L 7.066406 13.816406 L 7.066406 11.203125 L 5.816406 11.203125 Z "/>
   <path d="M 12.644531 7.078125 L 12.351562 6.800781 L 11.960938 6.886719 L 12.132812 6.523438 L 11.929688 6.175781 L 12.328125 6.226562 L 12.597656 5.929688 L 12.671875 6.324219 L 13.039062 6.484375 L 12.6875 6.679688 Z "/>
   <path d="M 12.96875 6.34375 L 12.984375 6.15625 L 12.835938 6.035156 L 13.019531 5.992188 L 13.089844 5.816406 L 13.1875 5.980469 L 13.375 5.988281 L 13.253906 6.132812 L 13.300781 6.316406 L 13.125 6.242188 Z "/>
   <path d="M 13.144531 7.4375 L 13.109375 7.152344 L 12.851562 7.019531 L 13.113281 6.898438 L 13.160156 6.613281 L 13.355469 6.824219 L 13.640625 6.78125 L 13.503906 7.03125 L 13.628906 7.289062 L 13.347656 7.234375 Z "/>
  </g>
 </defs>
 <g>
  <use xlink:href="#3" mask="url(#1)"/>
  <path d="M 5.886719 5.523438 C 3.734375 5.523438 2 7.257812 2 9.410156 C 2 9.496094 1.996094 9.59375 2 9.683594 C 1.242188 10.046875 0.726562 10.789062 0.726562 11.636719 C 0.726562 12.851562 1.78125 13.816406 3.089844 13.816406 L 12.910156 13.816406 C 14.21875 13.816406 15.273438 12.851562 15.273438 11.636719 C 15.273438 10.734375 14.699219 9.949219 13.863281 9.613281 C 13.882812 9.476562 13.886719 9.347656 13.886719 9.203125 C 13.886719 7.664062 12.632812 6.410156 11.089844 6.410156 C 10.316406 6.410156 9.621094 6.71875 9.113281 7.226562 C 8.414062 6.195312 7.226562 5.523438 5.886719 5.523438 Z M 4.273438 6.703125 C 4.695312 6.703125 5.046875 7.03125 5.046875 7.433594 C 5.046875 7.832031 4.695312 8.160156 4.273438 8.160156 C 3.851562 8.160156 3.523438 7.832031 3.523438 7.433594 C 3.523438 7.03125 3.851562 6.703125 4.273438 6.703125 Z M 7.976562 7.273438 L 10.183594 10.476562 L 8.839844 10.476562 L 8.839844 13.089844 L 7.066406 13.089844 L 7.066406 10.476562 L 5.816406 10.476562 Z " fill="#dcdcdc"/>
  <path d="M 12.644531 6.351562 L 12.351562 6.074219 L 11.960938 6.160156 L 12.132812 5.796875 L 11.929688 5.449219 L 12.328125 5.5 L 12.597656 5.199219 L 12.671875 5.597656 L 13.039062 5.757812 L 12.6875 5.953125 Z " fill="#dcdcdc"/>
  <path d="M 12.96875 5.617188 L 12.984375 5.429688 L 12.835938 5.308594 L 13.019531 5.265625 L 13.089844 5.089844 L 13.1875 5.253906 L 13.375 5.261719 L 13.253906 5.40625 L 13.300781 5.585938 L 13.125 5.515625 Z " fill="#dcdcdc"/>
  <path d="M 13.144531 6.710938 L 13.109375 6.425781 L 12.851562 6.292969 L 13.113281 6.167969 L 13.160156 5.886719 L 13.355469 6.097656 L 13.640625 6.054688 L 13.503906 6.304688 L 13.628906 6.5625 L 13.347656 6.507812 Z " fill="#dcdcdc"/>
 </g>
</svg>
